src/files/fonts/icomoon.svg

<?xml version="1.0" standalone="no"?>
<!DOCTYPE svg PUBLIC "-//W3C//DTD SVG 1.1//EN" "http://www.w3.org/Graphics/SVG/1.1/DTD/svg11.dtd" >
<svg xmlns="http://www.w3.org/2000/svg">
<metadata>Generated by IcoMoon</metadata>
<defs>
<font id="icomoon" horiz-adv-x="512">
<font-face units-per-em="512" ascent="480" descent="-32" />
<missing-glyph horiz-adv-x="512" />
<glyph unicode="&#x20;" d="" horiz-adv-x="256" />
<glyph unicode="&#xe600;" d="M512 224l-256 256v-160h-255.999l-0.001-192h256v-160z" />
<glyph unicode="&#xe601;" d="M0 224l256-256v160h255.999l0.001 192h-256v160z" />
<glyph unicode="&#xe602;" d="M310.627 41.373l160 160c12.497 12.496 12.497 32.758 0 45.255l-160 160c-12.497 12.496-32.758 12.496-45.255 0-12.497-12.497-12.497-32.758 0-45.255l105.373-105.373h-306.745c-17.673 0-32-14.327-32-32s14.327-32 32-32h306.745l-105.373-105.373c-6.248-6.248-9.372-14.438-9.372-22.627s3.124-16.379 9.372-22.627c12.497-12.497 32.758-12.497 45.255 0z" />
<glyph unicode="&#xe603;" d="M201.373 406.627l-160-160c-12.497-12.496-12.497-32.758 0-45.254l160-160c12.497-12.496 32.758-12.496 45.255 0 12.498 12.496 12.498 32.758 0 45.254l-105.374 105.373h306.746c17.673 0 32 14.326 32 32 0 17.673-14.327 32-32 32h-306.746l105.373 105.373c6.248 6.248 9.373 14.438 9.373 22.627s-3.124 16.379-9.372 22.627c-12.498 12.497-32.758 12.497-45.255 0z" />
<glyph unicode="&#xe604;" d="M279.533 448c0 0-100.478 0-133.97 0-60.060 0-116.585-45.503-116.585-98.211 0-53.863 40.941-97.333 102.044-97.333 4.249 0 8.378 0.085 12.421 0.376-3.965-7.593-6.801-16.144-6.801-25.021 0-14.969 8.052-27.105 18.234-37.012-7.693 0-15.121-0.224-23.226-0.224-74.391 0.001-131.65-47.379-131.65-96.51 0-48.389 62.771-78.657 137.167-78.657 84.812 0 131.653 48.122 131.653 96.514 0 38.8-11.448 62.036-46.843 87.067-12.108 8.572-35.265 29.418-35.265 41.672 0 14.36 4.098 21.434 25.714 38.323 22.156 17.312 37.836 41.651 37.836 69.958 0 33.703-15.010 66.549-43.186 77.386h42.477l29.98 21.672zM232.74 120.271c1.063-4.486 1.642-9.103 1.642-13.814 0-39.1-25.196-69.655-97.487-69.655-51.421 0-88.558 32.552-88.558 71.65 0 38.321 46.063 70.222 97.482 69.666 12-0.127 23.184-2.058 33.335-5.345 27.913-19.413 47.938-30.381 53.586-52.502zM150.409 266.112c-34.519 1.032-67.318 38.613-73.276 83.93-5.958 45.333 17.185 80.021 51.694 78.995 34.505-1.037 67.319-37.407 73.279-82.729 5.953-45.33-17.195-81.229-51.697-80.196zM416 352v96h-32v-96h-96v-32h96v-96h32v96h96v32z" />
<glyph unicode="&#xe605;" d="M287.935-32h-95.935v256h-64v88.225l64 0.029-0.104 51.976c0 71.976 19.517 115.77 104.299 115.77h70.588v-88.242h-44.115c-33.016 0-34.603-12.328-34.603-35.342l-0.131-44.162h79.345l-9.352-88.225-69.927-0.029-0.065-256z" />
<glyph unicode="&#xe606;" d="M512 382.791c-18.838-8.354-39.082-14.001-60.33-16.54 21.686 13 38.343 33.585 46.186 58.115-20.298-12.039-42.778-20.78-66.705-25.49-19.16 20.415-46.461 33.17-76.673 33.17-58.011 0-105.044-47.029-105.044-105.039 0-8.233 0.929-16.25 2.72-23.939-87.3 4.382-164.701 46.2-216.509 109.753-9.042-15.514-14.223-33.558-14.223-52.809 0-36.444 18.544-68.596 46.73-87.433-17.219 0.546-33.416 5.271-47.577 13.139-0.010-0.438-0.010-0.878-0.010-1.321 0-50.894 36.209-93.348 84.261-103-8.813-2.4-18.094-3.686-27.674-3.686-6.769 0-13.349 0.66-19.764 1.886 13.368-41.73 52.16-72.103 98.126-72.948-35.95-28.175-81.243-44.967-130.458-44.967-8.479 0-16.84 0.497-25.058 1.47 46.486-29.805 101.701-47.197 161.021-47.197 193.211 0 298.868 160.062 298.868 298.872 0 4.554-0.103 9.084-0.305 13.59 20.528 14.81 38.336 33.31 52.418 54.374z" />
<glyph unicode="&#xe607;" d="M68.147 104.535c-37.598 0-68.146-30.667-68.146-68.038 0-37.577 30.55-67.901 68.146-67.901 37.733 0 68.247 30.324 68.247 67.901-0.001 37.371-30.512 68.038-68.247 68.038zM0.078 306.035v-98.129c63.892 0 123.979-24.986 169.229-70.256 45.192-45.159 70.141-105.518 70.141-169.65h98.561c-0.001 186.41-151.641 338.035-337.931 338.035zM0.194 480v-98.178c227.891 0 413.378-185.667 413.378-413.822h98.428c0 282.235-229.627 512-511.806 512z" />
<glyph unicode="&#xe608;" d="M256 480c-141.385 0-256-114.615-256-256s114.615-256 256-256 256 114.615 256 256-114.615 256-256 256zM408.028 71.972c-19.759-19.758-42.756-35.266-68.354-46.093-6.503-2.75-13.107-5.164-19.8-7.246v38.367c0 20.167-6.917 35-20.75 44.5 8.667 0.833 16.625 2 23.875 3.5s14.917 3.667 23 6.5 15.333 6.208 21.75 10.125 12.583 9 18.5 15.25 10.875 13.333 14.875 21.25 7.167 17.417 9.5 28.5 3.5 23.292 3.5 36.625c0 25.833-8.417 47.833-25.25 66 7.667 20 6.833 41.75-2.5 65.25l-6.25 0.75c-4.333 0.5-12.125-1.333-23.375-5.5s-23.875-11-37.875-20.5c-19.833 5.5-40.417 8.25-61.75 8.25-21.5 0-42-2.75-61.5-8.25-8.833 6-17.208 10.958-25.125 14.875-7.917 3.917-14.25 6.583-19 8s-9.167 2.292-13.25 2.625-6.708 0.417-7.875 0.25-2-0.333-2.5-0.5c-9.333-23.667-10.167-45.417-2.5-65.25-16.833-18.167-25.25-40.167-25.25-66 0-13.333 1.167-25.542 3.5-36.625s5.5-20.583 9.5-28.5 8.958-15 14.875-21.25 12.083-11.333 18.5-15.25 13.667-7.292 21.75-10.125 15.75-5 23-6.5 15.208-2.667 23.875-3.5c-13.667-9.333-20.5-24.167-20.5-44.5v-39.115c-7.549 2.247-14.99 4.902-22.3 7.994-25.597 10.827-48.594 26.335-68.353 46.093-19.758 19.759-35.267 42.756-46.093 68.354-11.199 26.479-16.878 54.631-16.878 83.674s5.679 57.195 16.879 83.675c10.827 25.597 26.335 48.594 46.093 68.353s42.756 35.267 68.353 46.093c26.48 11.2 54.632 16.879 83.675 16.879s57.195-5.679 83.675-16.879c25.598-10.827 48.595-26.335 68.354-46.093 19.758-19.758 35.266-42.756 46.093-68.353 11.199-26.48 16.878-54.632 16.878-83.675s-5.679-57.195-16.879-83.675c-10.827-25.597-26.335-48.595-46.093-68.353z" />
<glyph unicode="&#xe609;" d="M0 480v-512h512v512h-512zM480 0h-448v448h448v-448zM384 368l-160-160-96 96-64-64 160-160 224 224-64 64z" />
<glyph unicode="&#xe60a;" d="M0 480v-512h512v512h-512zM480 0h-448v448h448v-448z" />
</font></defs></svg>

<?xml version="1.0" standalone="no"?>
<!DOCTYPE svg PUBLIC "-//W3C//DTD SVG 1.1//EN" "http://www.w3.org/Graphics/SVG/1.1/DTD/svg11.dtd" >
<svg xmlns="http://www.w3.org/2000/svg">
<metadata>
This is a custom SVG font generated by IcoMoon.
<iconset grid="16"></iconset>
</metadata>
<defs>
<font id="icomoon" horiz-adv-x="512" >
<font-face units-per-em="512" ascent="480" descent="-32" />
<missing-glyph horiz-adv-x="512" />
<glyph class="hidden" unicode="&#xf000;" d="M0,480L 512 -32L0 -32 z" horiz-adv-x="0" />
<glyph unicode="&#xe000;" d="M 512,224L 256,480L 256,320L 0.001,320L0,128L 256,128L 256-32 z"  />
<glyph unicode="&#xe001;" d="M0,224L 256-32L 256,128L 511.999,128L 512,320L 256,320L 256,480 z"  />
<glyph unicode="&#xe002;" d="M 310.627,41.373l 160,160c 12.497,12.496, 12.497,32.758,0,45.255l-160,160c-12.497,12.496-32.758,12.496-45.255,0
	c-12.497-12.497-12.497-32.758,0-45.255L 370.745,256L 64,256 c-17.673,0-32-14.327-32-32s 14.327-32, 32-32l 306.745,0 L 265.372,86.627
	C 259.124,80.379, 256,72.189, 256,64s 3.124-16.379, 9.372-22.627C 277.869,28.876, 298.13,28.876, 310.627,41.373z"  />
<glyph unicode="&#xe005;" d="M 201.373,406.627l-160-160c-12.497-12.496-12.497-32.758,0-45.254l 160-160c 12.497-12.496, 32.758-12.496, 45.255,0
	c 12.498,12.496, 12.498,32.758,0,45.254L 141.254,192L 448,192 c 17.673,0, 32,14.326, 32,32c0,17.673-14.327,32-32,32L 141.254,256 l 105.373,105.373
	C 252.875,367.621, 256,375.811, 256,384s-3.124,16.379-9.372,22.627C 234.13,419.124, 213.87,419.124, 201.373,406.627z"  />
<glyph unicode="&#xe006;" d="M 68.147,104.535c-37.598,0-68.146-30.667-68.146-68.038c0-37.577, 30.55-67.901, 68.146-67.901
		c 37.733,0, 68.247,30.324, 68.247,67.901C 136.393,73.868, 105.882,104.535, 68.147,104.535zM 0.078,306.035l0-98.129 c 63.892,0, 123.979-24.986, 169.229-70.256c 45.192-45.159, 70.141-105.518, 70.141-169.65l 98.561,0 
		C 338.008,154.41, 186.368,306.035, 0.078,306.035zM 0.194,480l0-98.178 c 227.891,0, 413.378-185.667, 413.378-413.822L 512-32 C 512,250.235, 282.373,480, 0.194,480z"  />
<glyph unicode="&#xe003;" d="M 512,382.791c-18.838-8.354-39.082-14.001-60.33-16.54c 21.686,13, 38.343,33.585, 46.186,58.115
	c-20.298-12.039-42.778-20.78-66.705-25.49c-19.16,20.415-46.461,33.17-76.673,33.17c-58.011,0-105.044-47.029-105.044-105.039
	c0-8.233, 0.929-16.25, 2.72-23.939c-87.3,4.382-164.701,46.2-216.509,109.753c-9.042-15.514-14.223-33.558-14.223-52.809
	c0-36.444, 18.544-68.596, 46.73-87.433c-17.219,0.546-33.416,5.271-47.577,13.139c-0.010-0.438-0.010-0.878-0.010-1.321
	c0-50.894, 36.209-93.348, 84.261-103c-8.813-2.4-18.094-3.686-27.674-3.686c-6.769,0-13.349,0.66-19.764,1.886
	c 13.368-41.73, 52.16-72.103, 98.126-72.948c-35.95-28.175-81.243-44.967-130.458-44.967c-8.479,0-16.84,0.497-25.058,1.47
	c 46.486-29.805, 101.701-47.197, 161.021-47.197c 193.211,0, 298.868,160.062, 298.868,298.872c0,4.554-0.103,9.084-0.305,13.59
	C 480.11,343.227, 497.918,361.727, 512,382.791z"  />
<glyph unicode="&#xe004;" d="M 279.533,448c0,0-100.478,0-133.97,0C 85.503,448, 28.978,402.497, 28.978,349.789c0-53.863, 40.941-97.333, 102.044-97.333
		c 4.249,0, 8.378,0.085, 12.421,0.376c-3.965-7.593-6.801-16.144-6.801-25.021c0-14.969, 8.052-27.105, 18.234-37.012
		c-7.693,0-15.121-0.224-23.226-0.224C 57.259,190.576,0,143.196,0,94.065c0-48.389, 62.771-78.657, 137.167-78.657
		c 84.812,0, 131.653,48.122, 131.653,96.514c0,38.8-11.448,62.036-46.843,87.067c-12.108,8.572-35.265,29.418-35.265,41.672
		c0,14.36, 4.098,21.434, 25.714,38.323c 22.156,17.312, 37.836,41.651, 37.836,69.958c0,33.703-15.010,66.549-43.186,77.386l 42.477,0 
		L 279.533,448z M 232.74,120.271c 1.063-4.486, 1.642-9.103, 1.642-13.814c0-39.1-25.196-69.655-97.487-69.655
		c-51.421,0-88.558,32.552-88.558,71.65c0,38.321, 46.063,70.222, 97.482,69.666c 12-0.127, 23.184-2.058, 33.335-5.345
		C 207.067,153.36, 227.092,142.392, 232.74,120.271z M 150.409,266.112c-34.519,1.032-67.318,38.613-73.276,83.93
		c-5.958,45.333, 17.185,80.021, 51.694,78.995c 34.505-1.037, 67.319-37.407, 73.279-82.729
		C 208.059,300.978, 184.911,265.079, 150.409,266.112zM 416,352L 416,448L 384,448L 384,352L 288,352L 288,320L 384,320L 384,224L 416,224L 416,320L 512,320L 512,352 	z"  />
<glyph unicode="&#xe007;" d="M 287.935-32L 192-32 L 192,224 l-64,0 l0,88.225 l 64,0.029l-0.104,51.976C 191.896,436.206, 211.413,480, 296.195,480l 70.588,0 l0-88.242 l-44.115,0 
	c-33.016,0-34.603-12.328-34.603-35.342l-0.131-44.162l 79.345,0 l-9.352-88.225L 288,224L 287.935-32z"  />
<glyph unicode="&#xe008;" d="M 256,480C 114.615,480,0,365.385,0,224s 114.615-256, 256-256s 256,114.615, 256,256S 397.385,480, 256,480z M 408.028,71.972
	c-19.759-19.758-42.756-35.266-68.354-46.093c-6.503-2.75-13.107-5.164-19.8-7.246L 319.874,57 c0,20.167-6.917,35-20.75,44.5
	c 8.667,0.833, 16.625,2, 23.875,3.5s 14.917,3.667, 23,6.5s 15.333,6.208, 21.75,10.125s 12.583,9, 18.5,15.25s 10.875,13.333, 14.875,21.25
	s 7.167,17.417, 9.5,28.5s 3.5,23.292, 3.5,36.625c0,25.833-8.417,47.833-25.25,66c 7.667,20, 6.833,41.75-2.5,65.25l-6.25,0.75
	c-4.333,0.5-12.125-1.333-23.375-5.5s-23.875-11-37.875-20.5c-19.833,5.5-40.417,8.25-61.75,8.25c-21.5,0-42-2.75-61.5-8.25
	c-8.833,6-17.208,10.958-25.125,14.875c-7.917,3.917-14.25,6.583-19,8s-9.167,2.292-13.25,2.625s-6.708,0.417-7.875,0.25
	s-2-0.333-2.5-0.5c-9.333-23.667-10.167-45.417-2.5-65.25c-16.833-18.167-25.25-40.167-25.25-66c0-13.333, 1.167-25.542, 3.5-36.625
	s 5.5-20.583, 9.5-28.5s 8.958-15, 14.875-21.25s 12.083-11.333, 18.5-15.25s 13.667-7.292, 21.75-10.125s 15.75-5, 23-6.5
	s 15.208-2.667, 23.875-3.5c-13.667-9.333-20.5-24.167-20.5-44.5l0-39.115 c-7.549,2.247-14.99,4.902-22.3,7.994
	c-25.597,10.827-48.594,26.335-68.353,46.093c-19.758,19.759-35.267,42.756-46.093,68.354C 46.679,166.805, 41,194.957, 41,224
	s 5.679,57.195, 16.879,83.675c 10.827,25.597, 26.335,48.594, 46.093,68.353s 42.756,35.267, 68.353,46.093
	C 198.805,433.321, 226.957,439, 256,439s 57.195-5.679, 83.675-16.879c 25.598-10.827, 48.595-26.335, 68.354-46.093
	c 19.758-19.758, 35.266-42.756, 46.093-68.353C 465.321,281.195, 471,253.043, 471,224s-5.679-57.195-16.879-83.675
	C 443.294,114.728, 427.786,91.73, 408.028,71.972z"  />
<glyph unicode="&#x20;" horiz-adv-x="256" />
</font></defs></svg>
